X:145
T:The New York Gals
M:C|
L:1/4
Q:1/4=3D120
K:C
G|\
CE GC|F/F/ A2A|GG FF|E3 G|
cc cG|BA AA|GG FD|CD EF|
G3 C|FA3|G2 F2|E C3|
c3 G|BA AA|GG AB|d c2||
